assets/icons/uEA08-biology.svg

<svg xmlns="http://www.w3.org/2000/svg" width="386.75" height="386.75" viewBox="0 0 386.75 386.75"><path d="M376.717 99.33c-6.755-1.51-13.967 3.124-15.372 9.42-.39 1.49-1.813 6.37-5.212 12.938L265.03 30.586c7.48-3.812 12.71-5.022 12.85-5.062C294.52 21.62 288.585-3.52 271.92.418c-1.032.252-102.057 26.625-85.457 170.83-6.632-.43-13.243-.64-19.73-.64-117.788 0-162.86 74.028-164.71 77.145-8.81 14.855 13.502 27.352 22.134 13.24.684-1.117 4.218-6.678 11.327-14.195l104.52 104.556c-7.446 7.044-13.024 10.604-14.08 11.253-14.662 8.73-1.568 30.744 13.113 22.218 3.513-2.102 85.434-52.386 76.51-184.503 105.63 12.262 160.172-41.383 170.873-85.563 1.607-7.01-2.866-13.98-9.706-15.43zm-188.84 155.05l-55.44-55.453c17.69-2.68 37.397-3.213 57.023-1.585 1.667 19.93 1.132 39.09-1.582 57.04zm-86.236-48.607l79.04 79.49c-7.91 23.426-17.52 39.164-24.28 47.048L54.61 230.17c17.59-14.28 40.4-21.415 47.033-24.392zm109.5-84.48l54.11 54.302c-15.93 1.525-33.77.99-52.46-1.525-2.57-19.01-3.13-36.752-1.64-52.776zm85.27 48.097l-79.39-78.735c5.78-18.687 14.09-31.667 25.16-43.34l97.69 96.263-1.033 1.29c-15.545 15.055-35.787 23.4-42.416 24.522z"/></svg>

<?xml version="1.0" encoding="iso-8859-1"?>
<!-- Generator: Adobe Illustrator 16.0.0, SVG Export Plug-In . SVG Version: 6.00 Build 0)  -->
<!DOCTYPE svg PUBLIC "-//W3C//DTD SVG 1.1//EN" "http://www.w3.org/Graphics/SVG/1.1/DTD/svg11.dtd">
<svg version="1.1" id="Capa_1" xmlns="http://www.w3.org/2000/svg" xmlns:xlink="http://www.w3.org/1999/xlink" x="0px" y="0px"
	 width="386.75px" height="386.75px" viewBox="0 0 386.75 386.75" style="enable-background:new 0 0 386.75 386.75;"
	 xml:space="preserve">
<g>
	<g>
		<path d="M376.717,99.329c-6.755-1.51-13.967,3.125-15.372,9.421c-0.391,1.489-1.813,6.371-5.212,12.938l-91.104-91.102
			c7.481-3.812,12.712-5.022,12.85-5.062c16.64-3.903,10.707-29.045-5.957-25.106c-1.032,0.252-102.057,26.625-85.457,170.831
			c-6.632-0.432-13.243-0.64-19.731-0.64c-117.787,0-162.859,74.027-164.708,77.144c-8.812,14.855,13.501,27.352,22.133,13.24
			c0.685-1.117,4.219-6.678,11.328-14.195l104.52,104.556c-7.446,7.044-13.024,10.604-14.081,11.253
			c-14.661,8.73-1.567,30.744,13.114,22.218c3.513-2.102,85.434-52.386,76.51-184.503c105.631,12.262,160.172-41.383,170.873-85.563
			C388.03,107.753,383.557,100.782,376.717,99.329z M187.878,254.381l-55.442-55.454c17.69-2.679,37.398-3.213,57.024-1.585
			C191.127,217.272,190.592,236.433,187.878,254.381z M101.641,205.773l79.032,79.491c-7.914,23.425-17.519,39.163-24.28,47.047
			L54.602,230.165C72.193,215.885,95.005,208.75,101.641,205.773z M211.141,121.294l54.104,54.301
			c-15.937,1.525-33.777,0.991-52.464-1.525C210.204,155.059,209.646,137.318,211.141,121.294z M296.403,169.39l-79.39-78.735
			c5.782-18.687,14.087-31.667,25.154-43.34l97.691,96.263l-1.038,1.291C323.274,159.923,303.032,168.267,296.403,169.39z"/>
	</g>
</g>
<g>
</g>
<g>
</g>
<g>
</g>
<g>
</g>
<g>
</g>
<g>
</g>
<g>
</g>
<g>
</g>
<g>
</g>
<g>
</g>
<g>
</g>
<g>
</g>
<g>
</g>
<g>
</g>
<g>
</g>
</svg>
